Resources/Icons/mute.svg

<svg version="1.1" xmlns="http://www.w3.org/2000/svg">
  <path
     d="M 12.5625 5.15625 C 12.2525 5.15625 12.00725 5.24275 11.78125 5.46875 L 5.8125 11.4375 L 1.15625 11.4375 C 0.84625 11.436833 0.56975 11.554583 0.34375 11.78125 C 0.11775 12.007917 0 12.253167 0 12.5625 L 0 19.4375 C -0.00066666667 19.7475 0.11708333 20.024 0.34375 20.25 C 0.57041667 20.476 0.84691667 20.5625 1.15625 20.5625 L 5.8125 20.5625 L 11.78125 26.53125 C 12.00725 26.756583 12.2525 26.843083 12.5625 26.84375 C 12.8725 26.844417 13.149 26.757917 13.375 26.53125 C 13.601 26.304583 13.71875 26.028083 13.71875 25.71875 L 13.71875 6.28125 C 13.71875 5.97125 13.601 5.69475 13.375 5.46875 C 13.149 5.24275 12.8725 5.15625 12.5625 5.15625 z M 16.9375 10.34375 C 16.773445 10.34375 16.594458 10.405542 16.46875 10.53125 L 15.25 11.75 C 14.998585 12.001415 14.998585 12.436085 15.25 12.6875 L 18.75 16.1875 L 15.25 19.65625 C 14.998585 19.907665 14.998585 20.311085 15.25 20.5625 L 16.46875 21.8125 C 16.720165 22.063915 17.123585 22.063915 17.375 21.8125 L 20.875 18.3125 L 24.375 21.8125 C 24.626415 22.063915 25.029835 22.063915 25.28125 21.8125 L 26.5 20.5625 C 26.751415 20.311085 26.751415 19.907665 26.5 19.65625 L 23 16.1875 L 26.5 12.6875 C 26.751415 12.436085 26.751415 12.001415 26.5 11.75 L 25.28125 10.53125 C 25.029835 10.279835 24.626415 10.279835 24.375 10.53125 L 20.875 14.03125 L 17.375 10.53125 C 17.249292 10.405542 17.101555 10.34375 16.9375 10.34375 z "
     id="path3088" />
</svg>

<svg version="1.1" xmlns="http://www.w3.org/2000/svg"><path d="M12.563 5.156c-.31 0-.556.087-.782.313l-5.969 5.968H1.157c-.31 0-.586.118-.812.344-.226.227-.344.472-.344.781v6.876c0 .31.117.586.344.812.226.226.503.313.812.313h4.657l5.968 5.968c.226.226.471.312.781.313.31 0 .587-.086.813-.313.226-.226.344-.503.344-.812V6.28c0-.31-.118-.586-.344-.812-.226-.226-.502-.313-.813-.313zm4.374 5.188a.673.673 0 0 0-.468.187L15.25 11.75a.677.677 0 0 0 0 .938l3.5 3.5-3.5 3.468a.639.639 0 0 0 0 .907l1.219 1.25a.639.639 0 0 0 .906 0l3.5-3.5 3.5 3.5a.639.639 0 0 0 .906 0l1.219-1.25a.639.639 0 0 0 0-.907L23 16.188l3.5-3.5a.677.677 0 0 0 0-.938l-1.219-1.219a.639.639 0 0 0-.906 0l-3.5 3.5-3.5-3.5a.602.602 0 0 0-.438-.187z"/></svg>
